Newaita-dark/apps/256/vim.svg

<?xml version="1.0" encoding="UTF-8"?>
<svg xmlns="http://www.w3.org/2000/svg" xmlns:xlink="http://www.w3.org/1999/xlink" width="256pt" height="256pt" viewBox="0 0 256 256" version="1.1">
<defs>
<radialGradient id="radial0" gradientUnits="userSpaceOnUse" cx="450.908936" cy="189.579361" fx="450.908936" fy="189.579361" r="21.166656" gradientTransform="matrix(0.00000139336,-0.62506,-1.125108,-0.000000812309,337.662598,508.762661)">
<stop offset="0" style="stop-color:rgb(0%,0%,0%);stop-opacity:0.313725;"/>
<stop offset="0.222222" style="stop-color:rgb(0%,0%,0%);stop-opacity:0.27451;"/>
<stop offset="1" style="stop-color:rgb(0%,0%,0%);stop-opacity:0;"/>
</radialGradient>
<radialGradient id="radial1" gradientUnits="userSpaceOnUse" cx="450.908936" cy="189.579361" fx="450.908936" fy="189.579361" r="21.166656" gradientTransform="matrix(-0.00000139336,0.62506,1.125108,0.000000812309,-83.638327,-60.219831)">
<stop offset="0" style="stop-color:rgb(0%,0%,0%);stop-opacity:0.313725;"/>
<stop offset="0.222222" style="stop-color:rgb(0%,0%,0%);stop-opacity:0.27451;"/>
<stop offset="1" style="stop-color:rgb(0%,0%,0%);stop-opacity:0;"/>
</radialGradient>
<radialGradient id="radial2" gradientUnits="userSpaceOnUse" cx="450.908936" cy="189.579361" fx="450.908936" fy="189.579361" r="21.166656" gradientTransform="matrix(-0.00000139336,-0.62506,1.125108,-0.000000812309,-83.638327,508.762661)">
<stop offset="0" style="stop-color:rgb(0%,0%,0%);stop-opacity:0.313725;"/>
<stop offset="0.222222" style="stop-color:rgb(0%,0%,0%);stop-opacity:0.27451;"/>
<stop offset="1" style="stop-color:rgb(0%,0%,0%);stop-opacity:0;"/>
</radialGradient>
<radialGradient id="radial3" gradientUnits="userSpaceOnUse" cx="450.908936" cy="189.579361" fx="450.908936" fy="189.579361" r="21.166656" gradientTransform="matrix(0.00000139336,0.62506,-1.125108,0.000000812309,337.662583,-60.219835)">
<stop offset="0" style="stop-color:rgb(0%,0%,0%);stop-opacity:0.313725;"/>
<stop offset="0.222222" style="stop-color:rgb(0%,0%,0%);stop-opacity:0.27451;"/>
<stop offset="1" style="stop-color:rgb(0%,0%,0%);stop-opacity:0;"/>
</radialGradient>
<linearGradient id="linear0" gradientUnits="userSpaceOnUse" x1="111.280739" y1="164.552521" x2="395.655518" y2="-119.822243" gradientTransform="matrix(0.353587,-0.353587,0.353587,0.353587,29.481014,205.435191)">
<stop offset="0" style="stop-color:rgb(40%,73.333333%,41.568627%);stop-opacity:1;"/>
<stop offset="1" style="stop-color:rgb(50.588235%,78.039216%,51.764706%);stop-opacity:1;"/>
</linearGradient>
<linearGradient id="linear1" gradientUnits="userSpaceOnUse" x1="800" y1="1535.118164" x2="800" y2="255.118118" gradientTransform="matrix(0.132304,0,0,0.132304,0,0)">
<stop offset="0" style="stop-color:rgb(87.843137%,87.843137%,87.843137%);stop-opacity:1;"/>
<stop offset="1" style="stop-color:rgb(93.333333%,93.333333%,93.333333%);stop-opacity:1;"/>
</linearGradient>
</defs>
<g id="surface1">
<path style=" stroke:none;fill-rule:nonzero;fill:url(#radial0);" d="M 127.011719 224.269531 L 148.179688 224.269531 L 148.179688 213.6875 L 127.011719 213.6875 Z M 127.011719 224.269531 "/>
<path style=" stroke:none;fill-rule:nonzero;fill:url(#radial1);" d="M 127.011719 224.269531 L 105.84375 224.269531 L 105.84375 234.855469 L 127.011719 234.855469 Z M 127.011719 224.269531 "/>
<path style=" stroke:none;fill-rule:nonzero;fill:url(#radial2);" d="M 127.011719 224.269531 L 105.84375 224.269531 L 105.84375 213.6875 L 127.011719 213.6875 Z M 127.011719 224.269531 "/>
<path style=" stroke:none;fill-rule:nonzero;fill:url(#radial3);" d="M 127.011719 224.269531 L 148.179688 224.269531 L 148.179688 234.855469 L 127.011719 234.855469 Z M 127.011719 224.269531 "/>
<path style=" stroke:none;fill-rule:nonzero;fill:url(#linear0);" d="M 29.714844 115.859375 L 119.527344 26.046875 C 123.660156 21.914062 130.363281 21.914062 134.496094 26.046875 L 224.308594 115.859375 C 228.441406 119.992188 228.441406 126.695312 224.308594 130.828125 L 134.496094 220.640625 C 130.363281 224.773438 123.660156 224.773438 119.527344 220.640625 L 29.714844 130.828125 C 25.582031 126.695312 25.582031 119.992188 29.714844 115.859375 Z M 29.714844 115.859375 "/>
<path style=" stroke:none;fill-rule:nonzero;fill:rgb(100%,100%,100%);fill-opacity:0.392157;" d="M 127.011719 22.9375 C 124.304688 22.9375 121.601562 23.976562 119.527344 26.046875 L 29.714844 115.859375 C 27.222656 118.351562 26.230469 121.761719 26.738281 124.984375 C 27.074219 122.847656 28.0625 120.792969 29.714844 119.140625 L 119.527344 29.332031 C 123.675781 25.183594 130.351562 25.183594 134.496094 29.332031 L 224.308594 119.140625 C 225.960938 120.792969 226.953125 122.847656 227.285156 124.984375 C 227.792969 121.761719 226.800781 118.351562 224.308594 115.859375 L 134.496094 26.046875 C 132.421875 23.976562 129.71875 22.9375 127.011719 22.9375 Z M 127.011719 22.9375 "/>
<path style=" stroke:none;fill-rule:nonzero;fill:rgb(0%,0%,0%);fill-opacity:0.235294;" d="M 127.011719 223.742188 C 124.304688 223.742188 121.601562 222.707031 119.527344 220.632812 L 29.714844 130.820312 C 27.222656 128.328125 26.230469 124.917969 26.738281 121.695312 C 27.074219 123.832031 28.0625 125.886719 29.714844 127.539062 L 119.527344 217.351562 C 123.675781 221.496094 130.351562 221.496094 134.496094 217.351562 L 224.308594 127.539062 C 225.960938 125.886719 226.953125 123.832031 227.285156 121.695312 C 227.792969 124.917969 226.800781 128.328125 224.308594 130.820312 L 134.496094 220.632812 C 132.421875 222.707031 129.71875 223.742188 127.011719 223.742188 Z M 127.011719 223.742188 "/>
<path style=" stroke:none;fill-rule:nonzero;fill:rgb(12.941177%,12.941177%,12.941177%);fill-opacity:1;" d="M 29.1875 115.328125 C 24.753906 119.761719 24.757812 126.929688 29.1875 131.359375 L 118.996094 221.167969 C 123.429688 225.601562 130.597656 225.601562 135.027344 221.167969 L 224.839844 131.359375 C 229.269531 126.929688 229.269531 119.761719 224.839844 115.328125 L 135.027344 25.519531 C 130.597656 21.085938 123.429688 21.085938 118.996094 25.519531 Z M 30.246094 116.390625 L 120.058594 26.578125 C 123.917969 22.71875 130.105469 22.71875 133.964844 26.578125 L 223.777344 116.390625 C 227.640625 120.253906 227.640625 126.4375 223.777344 130.296875 L 133.964844 220.109375 C 130.105469 223.972656 123.921875 223.972656 120.058594 220.109375 L 30.246094 130.296875 C 26.386719 126.4375 26.386719 120.25 30.246094 116.390625 Z M 30.246094 116.390625 "/>
<path style=" stroke:none;fill-rule:nonzero;fill:url(#linear1);" d="M 47.628906 39.046875 C 43.230469 39.046875 39.691406 42.585938 39.691406 46.984375 C 39.691406 51.382812 43.230469 54.921875 47.628906 54.921875 L 47.628906 186.613281 C 47.453125 190.886719 49.003906 195.214844 52.28125 198.492188 C 58.5 204.710938 68.511719 204.710938 74.734375 198.492188 L 218.300781 54.921875 L 222.269531 54.921875 C 226.667969 54.921875 230.210938 51.382812 230.210938 46.984375 C 230.210938 42.585938 226.667969 39.046875 222.269531 39.046875 L 174.640625 39.046875 C 170.242188 39.046875 166.703125 42.585938 166.703125 46.984375 C 166.703125 50.988281 169.636719 54.277344 173.480469 54.835938 L 79.382812 148.9375 L 79.382812 54.921875 C 83.78125 54.921875 87.320312 51.382812 87.320312 46.984375 C 87.320312 42.585938 83.78125 39.046875 79.382812 39.046875 Z M 47.628906 39.046875 "/>
<path style=" stroke:none;fill-rule:nonzero;fill:rgb(100%,100%,100%);fill-opacity:0.784314;" d="M 47.628906 39.046875 C 43.230469 39.046875 39.691406 42.585938 39.691406 46.984375 C 39.691406 47.433594 39.730469 47.875 39.800781 48.304688 C 40.429688 44.542969 43.683594 41.691406 47.628906 41.691406 L 79.382812 41.691406 C 83.328125 41.691406 86.582031 44.542969 87.210938 48.304688 C 87.28125 47.875 87.320312 47.433594 87.320312 46.984375 C 87.320312 42.585938 83.78125 39.046875 79.382812 39.046875 Z M 174.640625 39.046875 C 170.242188 39.046875 166.703125 42.585938 166.703125 46.984375 C 166.703125 47.433594 166.742188 47.875 166.8125 48.304688 C 167.441406 44.542969 170.695312 41.691406 174.640625 41.691406 L 222.269531 41.691406 C 226.21875 41.691406 229.472656 44.542969 230.097656 48.304688 C 230.171875 47.875 230.210938 47.433594 230.210938 46.984375 C 230.210938 42.585938 226.667969 39.046875 222.269531 39.046875 Z M 171.425781 56.894531 L 79.382812 148.9375 L 79.382812 151.582031 L 173.480469 57.484375 C 172.757812 57.378906 172.070312 57.175781 171.425781 56.894531 Z M 47.628906 186.613281 C 47.613281 187.039062 47.613281 187.46875 47.628906 187.898438 Z M 47.628906 186.613281 "/>
<path style=" stroke:none;fill-rule:nonzero;fill:rgb(0%,0%,0%);fill-opacity:0.235294;" d="M 39.753906 45.988281 C 39.714844 46.3125 39.691406 46.644531 39.691406 46.984375 C 39.691406 51.382812 43.230469 54.921875 47.628906 54.921875 L 47.628906 52.929688 C 43.570312 52.929688 40.242188 49.910156 39.753906 45.988281 Z M 87.257812 45.988281 C 86.769531 49.910156 83.441406 52.929688 79.382812 52.929688 L 79.382812 54.921875 C 83.78125 54.921875 87.320312 51.382812 87.320312 46.984375 C 87.320312 46.644531 87.296875 46.3125 87.257812 45.988281 Z M 230.144531 45.988281 C 229.660156 49.914062 226.332031 52.929688 222.269531 52.929688 L 218.300781 52.929688 L 74.734375 196.5 C 68.511719 202.71875 58.5 202.71875 52.28125 196.5 C 49.332031 193.550781 47.78125 189.75 47.628906 185.90625 L 47.628906 186.613281 C 47.453125 190.886719 49.003906 195.214844 52.28125 198.492188 C 58.5 204.710938 68.511719 204.710938 74.734375 198.492188 L 218.300781 54.921875 L 222.269531 54.921875 C 226.667969 54.921875 230.210938 51.382812 230.210938 46.984375 C 230.210938 46.644531 230.1875 46.3125 230.144531 45.988281 Z M 166.765625 45.992188 C 166.726562 46.316406 166.703125 46.648438 166.703125 46.984375 C 166.703125 50.414062 168.859375 53.320312 171.894531 54.433594 L 173.480469 52.847656 C 169.960938 52.335938 167.207031 49.53125 166.765625 45.992188 Z M 166.765625 45.992188 "/>
<path style=" stroke:none;fill-rule:nonzero;fill:rgb(12.941177%,12.941177%,12.941177%);fill-opacity:1;" d="M 47.628906 38.296875 C 42.828125 38.296875 38.941406 42.183594 38.941406 46.984375 C 38.941406 51.53125 42.429688 55.253906 46.878906 55.632812 L 46.878906 186.613281 L 46.878906 186.582031 C 46.695312 191.054688 48.324219 195.59375 51.75 199.023438 C 58.253906 205.527344 68.757812 205.527344 75.261719 199.023438 L 218.613281 55.671875 L 222.269531 55.671875 C 227.070312 55.671875 230.960938 51.785156 230.960938 46.984375 C 230.960938 42.183594 227.070312 38.296875 222.269531 38.296875 L 174.640625 38.296875 C 169.839844 38.296875 165.953125 42.183594 165.953125 46.984375 C 165.953125 50.863281 168.488281 54.140625 172 55.257812 L 80.132812 147.125 L 80.132812 55.632812 C 84.582031 55.253906 88.070312 51.53125 88.070312 46.984375 C 88.070312 42.183594 84.183594 38.296875 79.382812 38.296875 Z M 47.628906 39.796875 L 79.382812 39.796875 C 83.378906 39.796875 86.570312 42.988281 86.570312 46.984375 C 86.570312 50.980469 83.378906 54.171875 79.382812 54.171875 C 78.96875 54.171875 78.632812 54.507812 78.632812 54.921875 L 78.632812 148.9375 C 78.632812 149.238281 78.816406 149.511719 79.09375 149.628906 C 79.375 149.746094 79.699219 149.679688 79.914062 149.464844 L 174.011719 55.367188 C 174.210938 55.167969 174.28125 54.871094 174.191406 54.601562 C 174.101562 54.332031 173.871094 54.136719 173.589844 54.09375 C 170.105469 53.589844 167.453125 50.621094 167.453125 46.984375 C 167.453125 42.988281 170.644531 39.796875 174.640625 39.796875 L 222.269531 39.796875 C 226.265625 39.796875 229.460938 42.988281 229.460938 46.984375 C 229.460938 50.980469 226.265625 54.171875 222.269531 54.171875 L 218.300781 54.171875 C 218.101562 54.171875 217.914062 54.25 217.773438 54.390625 L 74.203125 197.960938 C 68.265625 203.894531 58.746094 203.894531 52.808594 197.960938 C 49.683594 194.835938 48.210938 190.714844 48.378906 186.644531 L 48.378906 54.921875 C 48.378906 54.507812 48.042969 54.171875 47.628906 54.171875 C 43.632812 54.171875 40.441406 50.980469 40.441406 46.984375 C 40.441406 42.988281 43.632812 39.796875 47.628906 39.796875 Z M 47.628906 39.796875 "/>
</g>
</svg>

<svg xmlns="http://www.w3.org/2000/svg" width="256pt" height="256pt" viewBox="0 0 256 256"><defs><radialGradient id="a" gradientUnits="userSpaceOnUse" cx="450.909" cy="189.579" fx="450.909" fy="189.579" r="21.167" gradientTransform="matrix(0 -.62506 -1.1251 0 337.663 508.763)"><stop offset="0" stop-opacity=".314"/><stop offset=".222" stop-opacity=".275"/><stop offset="1" stop-opacity="0"/></radialGradient><radialGradient id="b" gradientUnits="userSpaceOnUse" cx="450.909" cy="189.579" fx="450.909" fy="189.579" r="21.167" gradientTransform="matrix(0 .62506 1.1251 0 -83.638 -60.22)"><stop offset="0" stop-opacity=".314"/><stop offset=".222" stop-opacity=".275"/><stop offset="1" stop-opacity="0"/></radialGradient><radialGradient id="c" gradientUnits="userSpaceOnUse" cx="450.909" cy="189.579" fx="450.909" fy="189.579" r="21.167" gradientTransform="matrix(0 -.62506 1.1251 0 -83.638 508.763)"><stop offset="0" stop-opacity=".314"/><stop offset=".222" stop-opacity=".275"/><stop offset="1" stop-opacity="0"/></radialGradient><radialGradient id="d" gradientUnits="userSpaceOnUse" cx="450.909" cy="189.579" fx="450.909" fy="189.579" r="21.167" gradientTransform="matrix(0 .62506 -1.1251 0 337.663 -60.22)"><stop offset="0" stop-opacity=".314"/><stop offset=".222" stop-opacity=".275"/><stop offset="1" stop-opacity="0"/></radialGradient><linearGradient id="e" gradientUnits="userSpaceOnUse" x1="111.281" y1="164.553" x2="395.656" y2="-119.822" gradientTransform="rotate(-45 262.723 67.133) scale(.50005)"><stop offset="0" stop-color="#66bb6a"/><stop offset="1" stop-color="#81c784"/></linearGradient><linearGradient id="f" gradientUnits="userSpaceOnUse" x1="800" y1="1535.118" x2="800" y2="255.118" gradientTransform="scale(.1323)"><stop offset="0" stop-color="#e0e0e0"/><stop offset="1" stop-color="#eee"/></linearGradient></defs><path d="M127.012 224.27h21.168v-10.583h-21.168zm0 0" fill="url(#a)"/><path d="M127.012 224.27h-21.168v10.585h21.168zm0 0" fill="url(#b)"/><path d="M127.012 224.27h-21.168v-10.583h21.168zm0 0" fill="url(#c)"/><path d="M127.012 224.27h21.168v10.585h-21.168zm0 0" fill="url(#d)"/><path d="M29.715 115.86l89.812-89.813c4.133-4.133 10.836-4.133 14.97 0l89.812 89.812c4.132 4.133 4.132 10.836 0 14.97l-89.813 89.812c-4.133 4.132-10.836 4.132-14.969 0l-89.812-89.813c-4.133-4.133-4.133-10.836 0-14.969zm0 0" fill="url(#e)"/><path d="M127.012 22.938c-2.707 0-5.41 1.039-7.485 3.109l-89.812 89.812a10.549 10.549 0 0 0-2.977 9.125 10.55 10.55 0 0 1 2.977-5.843l89.812-89.809a10.558 10.558 0 0 1 14.97 0l89.812 89.809a10.525 10.525 0 0 1 2.976 5.843 10.549 10.549 0 0 0-2.976-9.125l-89.813-89.812a10.562 10.562 0 0 0-7.484-3.11zm0 0" fill="#fff" fill-opacity=".392"/><path d="M127.012 223.742c-2.707 0-5.41-1.035-7.485-3.11L29.715 130.82a10.549 10.549 0 0 1-2.977-9.125 10.55 10.55 0 0 0 2.977 5.844l89.812 89.813a10.565 10.565 0 0 0 14.97 0l89.812-89.813a10.525 10.525 0 0 0 2.976-5.844 10.549 10.549 0 0 1-2.976 9.125l-89.813 89.813a10.546 10.546 0 0 1-7.484 3.11zm0 0" fill-opacity=".235"/><path d="M29.188 115.328a11.327 11.327 0 0 0 0 16.031l89.808 89.809c4.434 4.434 11.602 4.434 16.031 0l89.813-89.809c4.43-4.43 4.43-11.597 0-16.03l-89.813-89.81c-4.43-4.433-11.597-4.433-16.03 0zm1.058 1.063l89.813-89.813a9.799 9.799 0 0 1 13.906 0l89.812 89.813a9.792 9.792 0 0 1 0 13.906l-89.812 89.812a9.792 9.792 0 0 1-13.906 0l-89.813-89.812a9.799 9.799 0 0 1 0-13.906zm0 0" fill="#212121"/><path d="M47.629 39.047a7.919 7.919 0 0 0-7.938 7.937 7.919 7.919 0 0 0 7.938 7.938v131.691a15.826 15.826 0 0 0 4.652 11.88 15.843 15.843 0 0 0 22.453 0L218.301 54.921h3.969a7.922 7.922 0 0 0 7.94-7.938 7.922 7.922 0 0 0-7.94-7.937h-47.63a7.919 7.919 0 0 0-7.937 7.937 7.916 7.916 0 0 0 6.777 7.852l-94.097 94.102V54.921a7.919 7.919 0 0 0 7.937-7.938 7.919 7.919 0 0 0-7.937-7.937zm0 0" fill="url(#f)"/><path d="M47.629 39.047a7.919 7.919 0 0 0-7.938 7.937c0 .45.04.891.11 1.32a7.922 7.922 0 0 1 7.828-6.613h31.754c3.945 0 7.199 2.852 7.828 6.614.07-.43.11-.871.11-1.32a7.919 7.919 0 0 0-7.938-7.938zm127.012 0a7.919 7.919 0 0 0-7.938 7.937c0 .45.04.891.11 1.32a7.922 7.922 0 0 1 7.828-6.613h47.629a7.915 7.915 0 0 1 7.828 6.614 7.922 7.922 0 0 0-7.828-9.258zm-3.215 17.848l-92.043 92.042v2.645l94.097-94.098a8.03 8.03 0 0 1-2.054-.59zM47.629 186.613c-.016.426-.016.856 0 1.285zm0 0" fill="#fff" fill-opacity=".784"/><path d="M39.754 45.988a7.919 7.919 0 0 0 7.875 8.934V52.93a7.921 7.921 0 0 1-7.875-6.942zm47.504 0a7.921 7.921 0 0 1-7.875 6.942v1.992a7.919 7.919 0 0 0 7.937-7.938c0-.34-.023-.672-.062-.996zm142.887 0a7.912 7.912 0 0 1-7.875 6.942h-3.97L74.735 196.5a15.843 15.843 0 0 1-22.453 0c-2.949-2.95-4.5-6.75-4.652-10.594v.707a15.826 15.826 0 0 0 4.652 11.88 15.843 15.843 0 0 0 22.453 0L218.301 54.921h3.969a7.922 7.922 0 0 0 7.875-8.934zm-63.38.004a7.918 7.918 0 0 0 5.129 8.441l1.586-1.585a7.92 7.92 0 0 1-6.714-6.856zm0 0" fill-opacity=".235"/><path d="M47.629 38.297a8.684 8.684 0 0 0-8.688 8.687 8.678 8.678 0 0 0 7.938 8.649v130.98-.031a16.601 16.601 0 0 0 4.871 12.441c6.504 6.504 17.008 6.504 23.512 0L218.613 55.672h3.657c4.8 0 8.69-3.887 8.69-8.688 0-4.8-3.89-8.687-8.69-8.687h-47.63a8.684 8.684 0 0 0-8.687 8.687A8.676 8.676 0 0 0 172 55.258l-91.867 91.867V55.633a8.678 8.678 0 0 0 7.937-8.649c0-4.8-3.886-8.687-8.687-8.687zm0 1.5h31.754a7.154 7.154 0 0 1 7.187 7.187 7.154 7.154 0 0 1-7.187 7.188.75.75 0 0 0-.75.75v94.016c0 .3.183.574.46.69.282.118.606.052.821-.163l94.098-94.098a.752.752 0 0 0-.422-1.273 7.154 7.154 0 0 1-6.137-7.11 7.154 7.154 0 0 1 7.188-7.187h47.629a7.157 7.157 0 0 1 7.19 7.187 7.157 7.157 0 0 1-7.19 7.188h-3.97c-.198 0-.386.078-.527.219L74.203 197.96a15.082 15.082 0 0 1-21.394 0 15.067 15.067 0 0 1-4.43-11.316V54.922a.75.75 0 0 0-.75-.75 7.154 7.154 0 0 1-7.188-7.188 7.154 7.154 0 0 1 7.188-7.187zm0 0" fill="#212121"/></svg>
